**kern	**silbe	**harmony	**phrase	**leadinstrument	**rhyme	**timestamp	**harte
*ICvox	*	*M12/8	*	*	*	*	*M12/8
*VRlead	*	*	*	*	*	*	*
*Hstimme	*	*	*	*	*	*	*
*E:	*	*E:	*	*	*	*	*E:
r;	.	1r;	.	r	.	0	N.C.
*E:	*	*	*	*	*	*	*
*M12/8	*	*	*	*	*	*	*
*clefF4	*	*	*	*	*	*	*
=1	=1	=1	=1	=1	=1	=1	=1
*>Letter>A	*>Letter>A	*>Letter>A	*>Letter>A	*>Letter>A	*>Letter>A	*>Letter>A	*>Letter>A
*>Label>Intro	*>Label>Intro	*>Label>Intro	*>Label>Intro	*>Label>Intro	*>Label>Intro	*>Label>Intro	*>Label>Intro
r;	.	2.EM	newline	guitar	.	0.395	E:1
=1	=1	=1	=1	=1	=1	=1	=1
1.r	.	2.AM	.	guitar	.	1.871	A:1
=2	=2	=2	=2	=2	=2	=2	=2
.	.	1.EM	.	guitar	.	3.347	E:1
=2	=2	=2	=2	=2	=2	=2	=2
4.r	.	.	.	.	.	.	.
4.d#	One	.	.	.	.	.	.
=3	=3	=3	=3	=3	=3	=3	=3
*>Letter>B	*>Letter>B	*>Letter>B	*>Letter>B	*>Letter>B	*>Letter>B	*>Letter>B	*>Letter>B
*>Label>Verse	*>Label>Verse	*>Label>Verse	*>Label>Verse	*>Label>Verse	*>Label>Verse	*>Label>Verse	*>Label>Verse
4.d#	ni-	1.EMm	newline	voice	.	6.3	E:7
4c#	-ght	.	.	.	.	.	.
8c#	with	.	.	.	.	.	.
=3	=3	=3	=3	=3	=3	=3	=3
1.G#	you	.	.	.	A	.	.
=4	=4	=4	=4	=4	=4	=4	=4
.	.	1.EMm	.	voice	.	9.235	E:7
=4	=4	=4	=4	=4	=4	=4	=4
4.r	.	.	.	.	.	.	.
8r	.	.	.	.	.	.	.
[4d#	is	.	.	.	.	.	.
=5	=5	=5	=5	=5	=5	=5	=5
4d#]	_	1.BMm	.	voice	.	12.171	B:7
8d#	what	.	.	.	.	.	.
4.c#	I'm	.	.	.	.	.	.
=5	=5	=5	=5	=5	=5	=5	=5
4A	now	.	.	.	.	.	.
4B	pray-	.	.	.	.	.	.
4A	-ing	.	.	.	.	.	.
=6	=6	=6	=6	=6	=6	=6	=6
2.F#	for	1.BMm	.	voice	.	15.106	B:7
=6	=6	=6	=6	=6	=6	=6	=6
4.r	.	.	.	.	.	.	.
4r	.	.	.	.	.	.	.
8d#	the	.	.	.	.	.	.
=7	=7	=7	=7	=7	=7	=7	=7
4.d#	things	1.BMm	newline	voice	.	18.042	B:7
4c#	that	.	.	.	.	.	.
[8A	we	.	.	.	.	.	.
=7	=7	=7	=7	=7	=7	=7	=7
4A]	_	.	.	.	.	.	.
[8B	two	.	.	.	.	.	.
8B]	_	.	.	.	.	.	.
4A	could	.	.	.	.	.	.
=8	=8	=8	=8	=8	=8	=8	=8
2.F#	plan	1.BMm	.	voice	.	20.975	B:7
=8	=8	=8	=8	=8	=8	=8	=8
4r	.	.	.	.	.	.	.
8F#	would	.	.	.	.	.	.
8G#	make	.	.	.	.	.	.
8A	my	.	.	.	.	.	.
[8c#	dreams	.	.	.	.	.	.
=9	=9	=9	=9	=9	=9	=9	=9
4.c#_	_	1.EMm	.	voice	.	23.907	E:7
8c#]	_	.	.	.	.	.	.
4B	come	.	.	.	.	.	.
=9	=9	=9	=9	=9	=9	=9	=9
1.G#	true	.	.	.	A	.	.
=10	=10	=10	=10	=10	=10	=10	=10
.	.	1.EMm	.	voice	.	26.84	E:7
=10	=10	=10	=10	=10	=10	=10	=10
4.r	.	.	.	.	.	.	.
4.d#	Just	.	.	.	.	.	.
=11	=11	=11	=11	=11	=11	=11	=11
*>Letter>B	*>Letter>B	*>Letter>B	*>Letter>B	*>Letter>B	*>Letter>B	*>Letter>B	*>Letter>B
*>Label>Verse	*>Label>Verse	*>Label>Verse	*>Label>Verse	*>Label>Verse	*>Label>Verse	*>Label>Verse	*>Label>Verse
4.d#	call	1.EMm	newline	voice	.	29.772	E:7
4c#	my	.	.	.	.	.	.
8c#	name	.	.	.	.	.	.
=11	=11	=11	=11	=11	=11	=11	=11
1.G#	_	.	.	.	.	.	.
=12	=12	=12	=12	=12	=12	=12	=12
.	.	1.EMm	.	voice	.	32.688	E:7
=12	=12	=12	=12	=12	=12	=12	=12
4.r	.	.	.	.	.	.	.
4r	.	.	.	.	.	.	.
8d#	and	.	.	.	.	.	.
=13	=13	=13	=13	=13	=13	=13	=13
4.d#	I'll	1.BMm	.	voice	.	35.605	B:7
4c#	be	.	.	.	.	.	.
[8A	right	.	.	.	.	.	.
=13	=13	=13	=13	=13	=13	=13	=13
4A]	_	.	.	.	.	.	.
[8B	by	.	.	.	.	.	.
8B]	_	.	.	.	.	.	.
4A	your	.	.	.	.	.	.
=14	=14	=14	=14	=14	=14	=14	=14
2.F#	side	1.BMm	.	voice	B	38.521	B:7
=14	=14	=14	=14	=14	=14	=14	=14
4.r	.	.	.	.	.	.	.
4r	.	.	.	.	.	.	.
8d#	I	.	.	.	.	.	.
=15	=15	=15	=15	=15	=15	=15	=15
4.d#	want	1.BMm	newline	voice	.	41.437	B:7
4c#	your	.	.	.	.	.	.
[8A	sweet	.	.	.	.	.	.
=15	=15	=15	=15	=15	=15	=15	=15
4A]	_	.	.	.	.	.	.
[8B	help-	.	.	.	.	.	.
8B]	_	.	.	.	.	.	.
4A	-ing	.	.	.	.	.	.
=16	=16	=16	=16	=16	=16	=16	=16
2.F#	hand	1.BMm	.	voice	.	44.429	B:7
=16	=16	=16	=16	=16	=16	=16	=16
4r	.	.	.	.	.	.	.
8F#	my	.	.	.	.	.	.
8G#	love's	.	.	.	.	.	.
8A	too	.	.	.	.	.	.
[8c#	strong	.	.	.	.	.	.
=17	=17	=17	=17	=17	=17	=17	=17
4.c#_	_	1.EM	.	voice	.	47.421	E:maj
8c#]	_	.	.	.	.	.	.
4B	to	.	.	.	.	.	.
=17	=17	=17	=17	=17	=17	=17	=17
1.G#	hide	.	.	.	B	.	.
=18	=18	=18	=18	=18	=18	=18	=18
.	.	1.EMm	.	voice	.	50.414	E:7
=18	=18	=18	=18	=18	=18	=18	=18
1.r	.	.	.	.	.	.	.
=19	=19	=19	=19	=19	=19	=19	=19
*>Letter>C	*>Letter>C	*>Letter>C	*>Letter>C	*>Letter>C	*>Letter>C	*>Letter>C	*>Letter>C
*>Label>Bridge	*>Label>Bridge	*>Label>Bridge	*>Label>Bridge	*>Label>Bridge	*>Label>Bridge	*>Label>Bridge	*>Label>Bridge
.	.	1.AM	newline	voice	.	53.406	A:maj
=19	=19	=19	=19	=19	=19	=19	=19
4.r	.	.	.	.	.	.	.
8r	.	.	.	.	.	.	.
8g	Al-	.	.	.	.	.	.
8f#	-ways	.	.	.	.	.	.
=20	=20	=20	=20	=20	=20	=20	=20
8e	lived	1.AM	.	voice	.	56.366	A:maj
8r	.	.	.	.	.	.	.
2r	.	.	.	.	.	.	.
=20	=20	=20	=20	=20	=20	=20	=20
8r	.	.	.	.	.	.	.
8g	ve-	.	.	.	.	.	.
8e	-ry	.	.	.	.	.	.
8f#	quiet	.	.	.	.	.	.
4e	life	.	.	.	.	.	.
=21	=21	=21	=21	=21	=21	=21	=21
4.r	.	1.EM	.	voice	.	59.327	E:maj
4.r	.	.	.	.	.	.	.
=21	=21	=21	=21	=21	=21	=21	=21
4.r	.	.	.	.	.	.	.
8r	.	.	.	.	.	.	.
8e	I	.	.	.	.	.	.
8e	ain't	.	.	.	.	.	.
=22	=22	=22	=22	=22	=22	=22	=22
8e	ne-	1.EM	.	voice	.	62.288	E:maj
8e	-ver	.	.	.	.	.	.
8r	.	.	.	.	.	.	.
4r	.	.	.	.	.	.	.
8e	did	.	.	.	.	.	.
=22	=22	=22	=22	=22	=22	=22	=22
8B	no	.	.	.	.	.	.
8c#	wrong	.	.	.	C	.	.
[8B	_	.	.	.	.	.	.
4B]	_	.	.	.	.	.	.
8r	.	.	.	.	.	.	.
=23	=23	=23	=23	=23	=23	=23	=23
2.r	.	1.F#Mm	newline	voice	.	65.248	F#:7
=23	=23	=23	=23	=23	=23	=23	=23
4r	.	.	.	.	.	.	.
8F#	now	.	.	.	.	.	.
4A#	I	.	.	.	.	.	.
[8c#	know	.	.	.	.	.	.
=24	=24	=24	=24	=24	=24	=24	=24
8c#]	_	1.F#Mm	.	voice	.	68.162	F#:7
4r	.	.	.	.	.	.	.
4r	.	.	.	.	.	.	.
16c#	that	.	.	.	.	.	.
16c#	a	.	.	.	.	.	.
=24	=24	=24	=24	=24	=24	=24	=24
4f#	life	.	.	.	.	.	.
8f#	with-	.	.	.	.	.	.
4d#	-out	.	.	.	.	.	.
8d#	you	.	.	.	.	.	.
=25	=25	=25	=25	=25	=25	=25	=25
4.c#	_	1.BMm	.	voice	.	71.076	B:7
4.r	.	.	.	.	.	.	.
=25	=25	=25	=25	=25	=25	=25	=25
4.g#	s'been	.	.	.	.	.	.
4.g#	too	.	.	.	.	.	.
=26	=26	=26	=26	=26	=26	=26	=26
4g#	lone-	1.N	.	voice	.	73.99	N.C.
8e	-ly	.	.	.	.	.	.
4g#	too	.	.	.	.	.	.
[8B	long	.	.	.	C	.	.
=26	=26	=26	=26	=26	=26	=26	=26
4B]	_	.	.	.	.	.	.
8r	.	.	.	.	.	.	.
4.d#	One	.	.	.	.	.	.
=27	=27	=27	=27	=27	=27	=27	=27
*>Letter>B	*>Letter>B	*>Letter>B	*>Letter>B	*>Letter>B	*>Letter>B	*>Letter>B	*>Letter>B
*>Label>Verse	*>Label>Verse	*>Label>Verse	*>Label>Verse	*>Label>Verse	*>Label>Verse	*>Label>Verse	*>Label>Verse
4.d#	night	1.EM	newline	voice	.	76.904	E:maj
4c#	_	.	.	.	.	.	.
8c#	with	.	.	.	.	.	.
=27	=27	=27	=27	=27	=27	=27	=27
1.G#	you	.	.	.	A	.	.
=28	=28	=28	=28	=28	=28	=28	=28
.	.	1.EM	.	voice	.	79.848	E:maj
=28	=28	=28	=28	=28	=28	=28	=28
4.r	.	.	.	.	.	.	.
8r	.	.	.	.	.	.	.
[4d#	is	.	.	.	.	.	.
=29	=29	=29	=29	=29	=29	=29	=29
4d#]	_	1.BMm	.	voice	.	82.791	B:7
8d#	what	.	.	.	.	.	.
4.c#	I'm	.	.	.	.	.	.
=29	=29	=29	=29	=29	=29	=29	=29
4A	now	.	.	.	.	.	.
[8B	pray-	.	.	.	.	.	.
8B]	_	.	.	.	.	.	.
4A	-ing	.	.	.	.	.	.
=30	=30	=30	=30	=30	=30	=30	=30
2.F#	for	1.BMm	.	voice	.	85.734	B:7
=30	=30	=30	=30	=30	=30	=30	=30
4.r	.	.	.	.	.	.	.
4r	.	.	.	.	.	.	.
8d#	the	.	.	.	.	.	.
=31	=31	=31	=31	=31	=31	=31	=31
4.d#	things	1.BMm	newline	voice	.	88.677	B:7
4c#	that	.	.	.	.	.	.
[8A	we	.	.	.	.	.	.
=31	=31	=31	=31	=31	=31	=31	=31
4A]	_	.	.	.	.	.	.
[8B	two	.	.	.	A	.	.
8B]	_	.	.	.	.	.	.
4A	could	.	.	.	.	.	.
=32	=32	=32	=32	=32	=32	=32	=32
2.F#	plan	1.BMm	.	voice	.	91.643	B:7
=32	=32	=32	=32	=32	=32	=32	=32
4r	.	.	.	.	.	.	.
8F#	would	.	.	.	.	.	.
8G#	make	.	.	.	.	.	.
8A	my	.	.	.	.	.	.
[8c#	dreams	.	.	.	.	.	.
=33	=33	=33	=33	=33	=33	=33	=33
4.c#_	_	1.EM	.	voice	.	94.61	E:maj
8c#]	_	.	.	.	.	.	.
4D#	come	.	.	.	.	.	.
=33	=33	=33	=33	=33	=33	=33	=33
1.E	true	.	.	.	A	.	.
=34	=34	=34	=34	=34	=34	=34	=34
.	.	1.EMm	.	voice	.	97.576	E:7
=34	=34	=34	=34	=34	=34	=34	=34
1.r	.	.	.	.	.	.	.
=35	=35	=35	=35	=35	=35	=35	=35
*>Letter>C	*>Letter>C	*>Letter>C	*>Letter>C	*>Letter>C	*>Letter>C	*>Letter>C	*>Letter>C
*>Label>Bridge	*>Label>Bridge	*>Label>Bridge	*>Label>Bridge	*>Label>Bridge	*>Label>Bridge	*>Label>Bridge	*>Label>Bridge
.	.	1.AM	newline	voice	.	100.542	A:maj
=35	=35	=35	=35	=35	=35	=35	=35
4.r	.	.	.	.	.	.	.
8r	.	.	.	.	.	.	.
8g	Al-	.	.	.	.	.	.
8f#	-ways	.	.	.	.	.	.
=36	=36	=36	=36	=36	=36	=36	=36
8e	lived	1.AM	.	voice	.	103.568	A:maj
8r	.	.	.	.	.	.	.
2r	.	.	.	.	.	.	.
=36	=36	=36	=36	=36	=36	=36	=36
8r	.	.	.	.	.	.	.
8g	ve-	.	.	.	.	.	.
8e	-ry	.	.	.	.	.	.
8f#	quiet	.	.	.	.	.	.
4e	life	.	.	.	.	.	.
=37	=37	=37	=37	=37	=37	=37	=37
4.r	.	1.EM	.	voice	.	106.594	E:maj
4.r	.	.	.	.	.	.	.
=37	=37	=37	=37	=37	=37	=37	=37
4.r	.	.	.	.	.	.	.
8r	.	.	.	.	.	.	.
8e	I	.	.	.	.	.	.
8e	ain't	.	.	.	.	.	.
=38	=38	=38	=38	=38	=38	=38	=38
8e	ne-	1.EM	.	voice	.	109.62	E:maj
8e	-ver	.	.	.	.	.	.
8r	.	.	.	.	.	.	.
4r	.	.	.	.	.	.	.
8e	did	.	.	.	.	.	.
=38	=38	=38	=38	=38	=38	=38	=38
8B	no	.	.	.	.	.	.
8c#	wrong	.	.	.	C	.	.
[8B	_	.	.	.	.	.	.
4B]	_	.	.	.	.	.	.
8r	.	.	.	.	.	.	.
=39	=39	=39	=39	=39	=39	=39	=39
2.r	.	1.F#Mm	newline	voice	.	112.647	F#:7
=39	=39	=39	=39	=39	=39	=39	=39
4r	.	.	.	.	.	.	.
8F#	now	.	.	.	.	.	.
4A#	I	.	.	.	.	.	.
[8c#	know	.	.	.	.	.	.
=40	=40	=40	=40	=40	=40	=40	=40
8c#]	_	1.F#Mm	.	voice	.	115.605	F#:7
4r	.	.	.	.	.	.	.
4r	.	.	.	.	.	.	.
16c#	that	.	.	.	.	.	.
16c#	a	.	.	.	.	.	.
=40	=40	=40	=40	=40	=40	=40	=40
4f#	life	.	.	.	.	.	.
8f#	with-	.	.	.	.	.	.
4d#	-out	.	.	.	.	.	.
8d#	you	.	.	.	.	.	.
=41	=41	=41	=41	=41	=41	=41	=41
4.c#	_	1.BMm	.	voice	.	118.564	B:7
4.r	.	.	.	.	.	.	.
=41	=41	=41	=41	=41	=41	=41	=41
4.g#	s'been	.	.	.	.	.	.
4.g#	too	.	.	.	.	.	.
=42	=42	=42	=42	=42	=42	=42	=42
4g#	lone-	1.N	.	voice	.	121.523	N.C.
8e	-ly	.	.	.	.	.	.
4g#	too	.	.	.	.	.	.
[8B	long	.	.	.	C	.	.
=42	=42	=42	=42	=42	=42	=42	=42
4B]	_	.	.	.	.	.	.
8r	.	.	.	.	.	.	.
4.d#	One	.	.	.	.	.	.
=43	=43	=43	=43	=43	=43	=43	=43
*>Letter>B	*>Letter>B	*>Letter>B	*>Letter>B	*>Letter>B	*>Letter>B	*>Letter>B	*>Letter>B
*>Label>Verse	*>Label>Verse	*>Label>Verse	*>Label>Verse	*>Label>Verse	*>Label>Verse	*>Label>Verse	*>Label>Verse
4.d#	night	1.EM	newline	voice	.	124.481	E:maj
4c#	_	.	.	.	.	.	.
8c#	with	.	.	.	.	.	.
=43	=43	=43	=43	=43	=43	=43	=43
1.G#	you	.	.	.	A	.	.
=44	=44	=44	=44	=44	=44	=44	=44
.	.	1.EM	.	voice	.	127.465	E:maj
=44	=44	=44	=44	=44	=44	=44	=44
4.r	.	.	.	.	.	.	.
4r	.	.	.	.	.	.	.
8d#	is	.	.	.	.	.	.
=45	=45	=45	=45	=45	=45	=45	=45
4.d#	what	1.BMm	.	voice	.	130.449	B:7
4c#	I'm	.	.	.	.	.	.
[8A	now	.	.	.	.	.	.
=45	=45	=45	=45	=45	=45	=45	=45
4A]	_	.	.	.	.	.	.
[8B	pray-	.	.	.	.	.	.
8B]	_	.	.	.	.	.	.
4A	-ing	.	.	.	.	.	.
=46	=46	=46	=46	=46	=46	=46	=46
2.F#	for	1.BMm	.	voice	.	133.433	B:7
=46	=46	=46	=46	=46	=46	=46	=46
4.r	.	.	.	.	.	.	.
4r	.	.	.	.	.	.	.
8d#	the	.	.	.	.	.	.
=47	=47	=47	=47	=47	=47	=47	=47
4.d#	things	1.BMm	newline	voice	.	136.417	B:7
4c#	that	.	.	.	.	.	.
[8A	we	.	.	.	.	.	.
=47	=47	=47	=47	=47	=47	=47	=47
4A]	_	.	.	.	.	.	.
[8B	too	.	.	.	A	.	.
8B]	_	.	.	.	.	.	.
4A	could	.	.	.	.	.	.
=48	=48	=48	=48	=48	=48	=48	=48
2.F#	plan	1.BMm	.	voice	.	139.569	B:7
=48	=48	=48	=48	=48	=48	=48	=48
4r	.	.	.	.	.	.	.
8B	would	.	.	.	.	.	.
4c#	make	.	.	.	.	.	.
8d#	my	.	.	.	.	.	.
=49	=49	=49	=49	=49	=49	=49	=49
4.g#	dreams	2.EM	.	voice	.	142.721	E:maj
4g#	come	.	.	.	.	.	.
8e	true	.	.	.	A	.	.
=49	=49	=49	=49	=49	=49	=49	=49
8f#	_	2.AM	.	voice	.	144.298	A:maj
[4e	_	.	.	.	.	.	.
4.e_	_	.	.	.	.	.	.
=50	=50	=50	=50	=50	=50	=50	=50
2.e]	_	4.EM	.	voice	.	145.874	E:maj
.	.	4.BMm	.	voice	.	146.662	B:7
=50	=50	=50	=50	=50	=50	=50	=50
1.r	.	2.EM	.	voice	.	147.45	E:maj
.	.	1r;	.	r	.	149.026	N.C.
r;	.	.	.	.	.	.	.
r;	.	1r;	.	r	.	151.04	N.C.
*-	*-	*-	*-	*-	*-	*-	*-
!!!BillboardChartDate: 1959/01/19
!!!BillboardPeak: 4
!!!BillboardWeeksOnChart: 17
!!!COC: Elvis Presley
!!!ENC: Nathaniel Condit-Schultz
!!!EST: Awating manual error checking and editing.
!!!OTL: One Night
!!!RDF**chordsym: original McGill chord annotation + (implied pitch class set, with bass pitch in first position)
!!!RDF**harmony: **recip + pitch class of root + harmonic quality
!!!RDF**leadinstrument: original McGill primary instrumentation annotation
!!!RDF**phrase: newline = linebreak in original McGill transcription
!!!RDF**timestamp: McGill audio timestamp in seconds
!!!RDT: 2017/01/12/
!!!SampleActualRank: 13
!!!SampleID#: 0399
!!!SampleTargetRank: 14
